!!!Melodie: eigene
!!!Typ: Lied
**kern	**silbe	**silbe	**silbe
*clefG2	*lang:DE	*lang:DE	*lang:DE
*k[b-]	*	*	*
*M2/2	*	*	*
*met(c|)	*	*	*
4cc	Herr,	Lass	.
4a	du	uns,	.
4f	wollst’	Le#	.
4a	uns	#ben	.
=	=	=	=
4b-	vor#	zu	.
4cc	#be#	emp#	.
4dd	#rei#	#fan#	.
4cc	#ten	#gen,	.
=	=	=	=
4r	%	%	.
4f	zu	mit	.
4e	dei#	glau#	.
4f	#nes	#bens#	.
=	=	=	=
4g	Mah#	#vol#	.
4a	#les	#lem	.
4b-	Se#	Her#	.
4cc	#lig#	#zen	.
=	=	=	=
4dd	#kei#	na#	.
4;cc	#ten!	#hen	.
4r	%	%	.
4ff	Sei	und	.
=	=	=	=
4ee	mit#	sprich	.
4cc	#ten	uns	.
4dd	un#	los	.
4b-	#ter	von	.
=	=	=	=
4a	uns,	Sünd’	.
4g	o	und	.
2f	Gott!	Tod!	.
=:|:	=	=	=
4r	.	%	%
4cc	.	Wir	Dein
4dd	.	sind,	lass
4ee	.	O	uns
4ff	.	Je#	e#
4ee	.	#su,	#wig
2dd	.	dein:	sein!
=:|	=	=	=
4gg	.	.	A#
4ff	.	.	#men!
(4ee	.	.	A#
4dd)	.	.	|
=	=	=	=
2cc	.	.	#men!
4r	.	.	%
4cc	.	.	An#
=	=	=	=
4cc	.	.	#be#
4b-	.	.	#tung
2a	.	.	dir!
=	=	=	=
4r	.	.	%
4cc	.	.	Einst
4cc	.	.	fei#
4b-	.	.	#ern
=	=	=	=
2a	.	.	wir
4r	.	.	%
4ff	.	.	das
=	=	=	=
4ee	.	.	gro#
4cc	.	.	#ße
4dd	.	.	A#
4b-	.	.	#bend#
=	=	=	=
4a	.	.	#mahl
4g	.	.	bei
2f	.	.	dir!
==	==	==	==
*-	*-	*-	*-
